X: 1
T: Tourner \`a Trois   [Bm]
C: Paul Machlis (1998)
Z: 2006 John Chambers <jc:trillian.mit.edu>
S: MS of unknown origin
M: 3/4
L: 1/8
K: Bm
|: "Bm"de f3 F | "Em"GA B4 \
| "A"cd e3 E | "D"G2 F4 \
|  "Bm"B,D FB df | "Em"ef g4 \
|1 "C#m"fg f3 F | "F#"fg fe dc \
:|2 "F#"f3 e dc | "Bm"B6 |]
[| "A"cd e3 g | "D"g2 f4 \
| "Em"e3 g fe | "Bm"e2 d4 \
| "C"=cd ef gc | "Bm"Bd f4 \
| "C#m"fg f3 F | "F#"fg f4 |
| "Bm"bf dB FD | "Em"GA B4 \
| "A"cd e3 E | "D"G2 F4 \
| "C"=cd ef gc | "Bm"Bd f3 g \
| "F#"f3 e dc | "Bm"B6 |]
